src/assets/logos/tailwindcss.svg

<svg width="50" height="30" viewBox="0 0 50 30" fill="none" xmlns="http://www.w3.org/2000/svg">
<path d="M25 0C18.3331 0 14.1666 3.3334 12.4997 9.99958C15 6.66618 17.9167 5.41662 21.2498 6.24966C23.1518 6.72497 24.5111 8.10523 26.016 9.63247C28.4669 12.1203 31.3036 14.9997 37.5003 14.9997C44.1666 14.9997 48.3337 11.6663 50 4.99948C47.5003 8.33288 44.5836 9.58306 41.2498 8.75003C39.3485 8.27472 37.9892 6.89445 36.4843 5.36722C34.0334 2.87936 31.1961 0 25 0V0ZM12.4997 14.9997C5.83344 14.9997 1.66625 18.3331 0 24.9999C2.49969 21.6665 5.41641 20.4163 8.75016 21.25C10.6515 21.7259 12.0108 23.1055 13.5157 24.6322C15.9666 27.12 18.8039 30 25 30C31.6669 30 35.8334 26.6666 37.5003 19.9998C35 23.3332 32.0833 24.5834 28.7502 23.7497C26.8482 23.275 25.4889 21.8941 23.984 20.3675C21.5331 17.8797 18.6964 14.9997 12.4997 14.9997V14.9997Z" fill="#06B6D4"/>
</svg>

<svg width="50" height="30" fill="none" xmlns="http://www.w3.org/2000/svg"><path d="M25 0c-6.667 0-10.833 3.333-12.5 10 2.5-3.334 5.417-4.583 8.75-3.75 1.902.475 3.261 1.855 4.766 3.382C28.466 12.12 31.304 15 37.5 15c6.667 0 10.834-3.334 12.5-10-2.5 3.333-5.416 4.583-8.75 3.75-1.901-.475-3.26-1.856-4.766-3.383C34.034 2.88 31.196 0 25 0zM12.5 15C5.833 15 1.666 18.333 0 25c2.5-3.334 5.416-4.584 8.75-3.75 1.902.476 3.26 1.855 4.766 3.382C15.966 27.12 18.804 30 25 30c6.667 0 10.833-3.333 12.5-10-2.5 3.333-5.417 4.583-8.75 3.75-1.902-.475-3.261-1.856-4.766-3.383C21.534 17.88 18.696 15 12.5 15z" fill="#06B6D4"/></svg>
